X:130
T:The Rose Tree
M:4/4
K:D
L:1/8
fe| d2B2 A2F2 | ABAF A2FA |d2d2 fede| f2e2 egfe |\
d2B2 A2F2 | A3B A2A2 | d4 e2de | f2d2d2 :|
|: de | f2e2f2g2 | a2ba g2f2 | e2b2 b2a2 | b2e2 egfe |\
d2B2 A2F2 | ABAF A2FA| d2d2 fede| f2d2d2 :|
